apps/explorer/src/assets/img/info.svg

<svg fill="none" height="20" viewBox="0 0 20 20" width="20" xmlns="http://www.w3.org/2000/svg"><path d="m9.08334 6.33331c0-.50625.41039-.91666.91666-.91666.5063 0 .9167.41041.9167.91666 0 .50626-.4104.91667-.9167.91667-.50627 0-.91666-.41041-.91666-.91667zm0 3.66667c0-.50628.41039-.91667.91666-.91667.5063 0 .9167.41039.9167.91667v3.66662c0 .5063-.4104.9167-.9167.9167-.50627 0-.91666-.4104-.91666-.9167zm.91666-9.166667c-5.05999 0-9.166656 4.106667-9.166656 9.166667 0 5.06002 4.106666 9.16662 9.166656 9.16662 5.06 0 9.1667-4.1066 9.1667-9.16662 0-5.06-4.1067-9.166667-9.1667-9.166667zm0 16.499987c-4.04249 0-7.33332-3.2908-7.33332-7.33332 0-4.0425 3.29083-7.33333 7.33332-7.33333 4.0425 0 7.3333 3.29083 7.3333 7.33333 0 4.04252-3.2908 7.33332-7.3333 7.33332z" fill="#c5d9ed"/></svg>

<svg width="20" height="20" viewBox="0 0 20 20" fill="none" xmlns="http://www.w3.org/2000/svg">
<path d="M9.08334 6.33331C9.08334 5.82706 9.49373 5.41665 10 5.41665C10.5063 5.41665 10.9167 5.82706 10.9167 6.33331C10.9167 6.83957 10.5063 7.24998 10 7.24998C9.49373 7.24998 9.08334 6.83957 9.08334 6.33331ZM9.08334 9.99998C9.08334 9.4937 9.49373 9.08331 10 9.08331C10.5063 9.08331 10.9167 9.4937 10.9167 9.99998V13.6666C10.9167 14.1729 10.5063 14.5833 10 14.5833C9.49373 14.5833 9.08334 14.1729 9.08334 13.6666V9.99998ZM10 0.833313C4.94001 0.833313 0.833344 4.93998 0.833344 9.99998C0.833344 15.06 4.94001 19.1666 10 19.1666C15.06 19.1666 19.1667 15.06 19.1667 9.99998C19.1667 4.93998 15.06 0.833313 10 0.833313ZM10 17.3333C5.95751 17.3333 2.66668 14.0425 2.66668 9.99998C2.66668 5.95748 5.95751 2.66665 10 2.66665C14.0425 2.66665 17.3333 5.95748 17.3333 9.99998C17.3333 14.0425 14.0425 17.3333 10 17.3333Z" fill="#C5D9ED"/>
</svg>
